rospo-dark/16x16/actions/stroke-join-round.svg

<svg height="16" viewBox="0 0 16 16" width="16" xmlns="http://www.w3.org/2000/svg"><path d="m4 2c-1.108 0-2 .892-2 2v10h4v-8h8v-4zm0 1h9v2h-8v8h-2v-9c0-.554.446-1 1-1zm4 5v6h4v-2h2v-4zm1 1h4v2h-2v2h-2z" fill="#d3dae3"/></svg>

<?xml version="1.0" encoding="UTF-8" standalone="no"?>
<svg xmlns="http://www.w3.org/2000/svg" width="22" height="22" viewBox="0 0 22 22">
 <defs>
  <style type="text/css" id="current-color-scheme">
   .ColorScheme-Text { color:#d3dae3; } .ColorScheme-Highlight { color:#5294e2; }
  </style>
 </defs>
 <path style="fill:currentColor;opacity:1" class="ColorScheme-Text" transform="translate(3 3)" d="M 4 2 C 2.892 2 2 2.892 2 4 L 2 14 L 6 14 L 6 6 L 14 6 L 14 2 L 4 2 z M 4 3 L 13 3 L 13 5 L 5 5 L 5 13 L 3 13 L 3 4 C 3 3.446 3.446 3 4 3 z M 8 8 L 8 14 L 12 14 L 12 12 L 14 12 L 14 8 L 8 8 z M 9 9 L 13 9 L 13 11 L 11 11 L 11 13 L 9 13 L 9 9 z"/>
</svg>
